X: 5
T: Christy Barry's
R: jig
M: 6/8
L: 1/8
K: Gmaj
M: 12/8
|: F |G2 A B2 G ABB d2 e | ged BGG ABA GED |
G2 A B2 G ABB d2 e | ged BGG AGG G2 :|
|: f |g3 gfg agf d2 e | ged BGG ABA GED |
G2 A B2 G ABB d2 e | ged BGG AGG G2 :|


Tune 843	Setting 21444

